rospo-newyear-light/16x16/clementine/hypnotoad.svg

<svg height="22" viewBox="0 0 16 16" width="22" xmlns="http://www.w3.org/2000/svg"><path d="m13.667272 11.603151c-.102516-.01336-.198871.03263-.25791.112069l-.401339-.05236.578166-.594245c.09371.02529.197395 0 .270705-.07659.11-.115311.109389-.301642-.00075-.416079-.110237-.114589-.288829-.114156-.399066.000682-.07256.07607-.09679.182995-.07324.279953l-.516685.531169.172254-.683109c.09115-.02821.168308-.09928.194298-.202393.03957-.157091-.05048-.317711-.201043-.35905-.150719-.04148-.30507.05262-.344627.209579-.02601.103008.0076.204437.07373.275932l-.187161.74185-.21148-.797571c.0654-.07217.09771-.174044.0706-.276874-.04167-.156403-.196835-.248338-.347045-.205311-.267319.07704-.283873.477739 0 .56163l.165865.626259c-.125968.05687-.996477.449365-1.085993.49011.06076-.278155.04713-.216766.267107-1.221329.0011.0062.01347-.08863.01398-.136082.01585-.5480114-.471324-1.0533264-1.128672-.8186564-.03208.01203.0054-.0096-.6722234.36303.1573041-.647198.2665228-1.3374934.3167539-1.9896493.7296835.4627286 1.0231195-.0503278 1.1028785-.2722153.0106-.029454.891432-2.7719593.891432-2.7719593l.603554-.6310283c.09265.023439.193475.00266.265606-.072971.110067-.1152685.109464-.3015987-.000775-.4161799-.110144-.1144794-.288829-.1140043-.398973.0008137-.07213.075624-.0919.1807216-.06918.2772977l-.524694.5485458.176123-.6976863c.09125-.028392.168333-.099478.194323-.2025366.03963-.1571419-.0504-.3177542-.201043-.3590421-.150719-.041483-.304968.052539-.344626.2095452-.02599.1029653.0076.2043778.0738.2758892l-.18667.7414179-.211276-.7974188c.0654-.072263.09771-.1740864.0706-.2769159-.04165-.1564036-.196929-.2483469-.347037-.2052686-.150209.043252-.238258.2052687-.196936.3620712.02725.1025325.10518.1724234.196665.1995414l.194637.7339256s-.474463.9672882-.944464 1.9259217c-.062789-.065589-.125577-.1314324-.182427-.1904031-.077213-.0806073-.1476386-.154257-.2095789-.2197611-.0763649-.4710014-.2019427-.8680987-.3687574-1.1897644.0655889-.0959652.1050441-.2126337.1050441-.3392297 0-.3242112-.2522247-.5868808-.5630975-.5868808-.030027 0-.058821.00442-.08759.00911l-.3192056-.3326959c.00167-.01999.00571-.039006.00571-.059262 0-.3962572-.3076061-.719883-.6872243-.719883-.3795927 0-.6871989.3236258-.6871989.719883 0 .020255.00404.039272.00571.059262l-.3191194.3326962c-.028769-.00442-.057563-.00911-.087591-.00911-.3108728 0-.5630975.2626696-.5630975.5868808 0 .126596.039465.243256.1050102.3392467-.1664749.3216654-.2923072.7186778-.3683327 1.1897641-.0626191.0654192-.1330445.1390689-.2102579.2196762-.0563403.0589707-.1194685.124899-.1822574.1904879-.4699833-.9586334-.9444636-1.9259216-.9444636-1.9259216l.1946456-.7339511c.0914681-.027152.1693602-.0969834.1966819-.199482.0413219-.1568873-.0467523-.3188657-.1969365-.3621391-.1501842-.0430189-.3054594.0488735-.3471207.2052518-.027099.1028295.0052.2046832.070604.2769159l-.2114454.7974188-.1871787-.7417573c.0661828-.0714436.0998682-.172924.0738193-.2758468-.0396248-.1570571-.1938818-.2510707-.3445752-.2095791-.1506933.0413218-.240719.2019426-.2010941.3590845.0260489.1030077.1030926.1741118.1943061.2025365l.1761483.6976354-.5246265-.5485542c.0227397-.0965591.0029697-.2016881-.0691527-.2772893-.1102199-.1148018-.2888288-.1153109-.3989639-.0007636-.1103048.1145473-.1108987.3008775-.0007637.4161884.072105.075359.1729325.096415.26558.072971l.6035539.6310282s.8809111 2.7425165.8914324 2.7719594c.079823.2218568.3732545.7349438 1.1028782.2722067.050256.6521389.1594753 1.3424096.316753 1.9896436-.6776108-.373-.6401072-.351363-.6721805-.363412-.6573317-.234694-1.1445394.270926-1.1286725.8190564.0005082.04741.012873.141954.013986.136082.2199647 1.004622.2063463.943191.2670988 1.221329-.089576-.04077-.9600759-.433252-1.0859931-.49011l.1658645-.62626c.2838736-.08394.2673194-.484628 0-.561638-.1502097-.04308-.3053831.04892-.3470444.20532-.0271.102804.0052.204658.070604.276873l-.2115304.797589-.1871788-.741588c.066056-.07155.099741-.172924.073726-.275931-.039561-.156939-.1939073-.251071-.344626-.209579-.1505746.0413-.2406087.201968-.2010432.35905.026011.10311.1031689.17418.1942976.202384l.1722537.683118-.5166592-.531169c.023567-.09696-.0006774-.203877-.073242-.279953-.1102369-.114836-.2888288-.115269-.3990657-.000682-.1101436.114437-.110746.300759-.0007501.416078.073315.07659.1769968.10188.2707049.07659l.5781499.594246-.4013398.05236c-.059039-.07943-.1553855-.125408-.2579096-.11207-.1546642.02025-.2643242.167307-.2450633.328123.019285.16102.1603493.275482.3151832.255661.1025156-.01345.1849048-.08287.2233333-.174994l.6273797-.0823c.066177.0383 1.8706844 1.083532 1.8706844 1.083532.1955025.113224.4354833.1021.6205578-.02875.1850745-.130856.2839415-.359195.255152-.590368-.073508-.59019-.1430484-1.145982-.1433623-1.148613.037528.02583 1.0215072.731134 1.5205091 1.085824.1959692.221551.4055737.354222.6232984.354222.2177162 0 .4273293-.132688.6232985-.354222.4989764-.354707 1.4830056-1.060029 1.5205096-1.085824-.000314.0026-.06986.558457-.143363 1.148613-.028798.231173.07009.459529.255152.590368.1851.130855.425055.141979.620558.02875 0 0 1.804586-1.04518 1.870684-1.083532l.627405.0819c.03842.09216.120809.161554.223333.174994.154834.01981.295897-.09464.315158-.255686.01931-.160841-.09035-.307869-.245012-.328123z" fill="#5c616c" stroke-width=".848498"/></svg>

<?xml version="1.0" encoding="UTF-8" standalone="no"?>
<svg
   xmlns:dc="http://purl.org/dc/elements/1.1/"
   xmlns:cc="http://creativecommons.org/ns#"
   xmlns:rdf="http://www.w3.org/1999/02/22-rdf-syntax-ns#"
   xmlns:svg="http://www.w3.org/2000/svg"
   xmlns="http://www.w3.org/2000/svg"
   xmlns:sodipodi="http://sodipodi.sourceforge.net/DTD/sodipodi-0.dtd"
   xmlns:inkscape="http://www.inkscape.org/namespaces/inkscape"
   id="Capa_1"
   xml:space="preserve"
   viewBox="0 0 16 16"
   height="22"
   width="22"
   version="1.1"
   y="0"
   x="0"
   sodipodi:docname="hypnotoad.svg"
   inkscape:version="0.92.1 r"><metadata
     id="metadata8"><rdf:RDF><cc:Work
         rdf:about=""><dc:format>image/svg+xml</dc:format><dc:type
           rdf:resource="http://purl.org/dc/dcmitype/StillImage" /></cc:Work></rdf:RDF></metadata><sodipodi:namedview
     pagecolor="#ffffff"
     bordercolor="#666666"
     borderopacity="1"
     objecttolerance="10"
     gridtolerance="10"
     guidetolerance="10"
     inkscape:pageopacity="0"
     inkscape:pageshadow="2"
     inkscape:window-width="749"
     inkscape:window-height="480"
     id="namedview6"
     showgrid="false"
     inkscape:zoom="10.727273"
     inkscape:cx="11"
     inkscape:cy="11"
     inkscape:window-x="0"
     inkscape:window-y="0"
     inkscape:window-maximized="0"
     inkscape:current-layer="Capa_1" /><defs
     id="defs7"><style
       type="text/css"
       id="current-color-scheme">
   .ColorScheme-Text { color:#5c616c; } .ColorScheme-Highlight { color:#5294e2; }
  </style></defs><path
     id="path3"
     d="m 13.667272,11.603151 c -0.102516,-0.01336 -0.198871,0.03263 -0.25791,0.112069 l -0.401339,-0.05236 0.578166,-0.594245 c 0.09371,0.02529 0.197395,0 0.270705,-0.07659 0.11,-0.115311 0.109389,-0.301642 -7.5e-4,-0.416079 -0.110237,-0.114589 -0.288829,-0.114156 -0.399066,6.82e-4 -0.07256,0.07607 -0.09679,0.182995 -0.07324,0.279953 l -0.516685,0.531169 0.172254,-0.683109 c 0.09115,-0.02821 0.168308,-0.09928 0.194298,-0.202393 0.03957,-0.157091 -0.05048,-0.317711 -0.201043,-0.35905 -0.150719,-0.04148 -0.30507,0.05262 -0.344627,0.209579 -0.02601,0.103008 0.0076,0.204437 0.07373,0.275932 l -0.187161,0.74185 -0.21148,-0.797571 c 0.0654,-0.07217 0.09771,-0.174044 0.0706,-0.276874 -0.04167,-0.156403 -0.196835,-0.248338 -0.347045,-0.205311 -0.267319,0.07704 -0.283873,0.477739 0,0.56163 l 0.165865,0.626259 c -0.125968,0.05687 -0.996477,0.449365 -1.085993,0.49011 0.06076,-0.278155 0.04713,-0.216766 0.267107,-1.221329 0.0011,0.0062 0.01347,-0.08863 0.01398,-0.136082 0.01585,-0.5480114 -0.471324,-1.0533264 -1.128672,-0.8186564 -0.03208,0.01203 0.0054,-0.0096 -0.6722234,0.36303 C 9.8040467,9.3085666 9.9132654,8.6182712 9.9634965,7.9661153 10.69318,8.4288439 10.986616,7.9157875 11.066375,7.6939 c 0.0106,-0.029454 0.891432,-2.7719593 0.891432,-2.7719593 l 0.603554,-0.6310283 c 0.09265,0.023439 0.193475,0.00266 0.265606,-0.072971 0.110067,-0.1152685 0.109464,-0.3015987 -7.75e-4,-0.4161799 -0.110144,-0.1144794 -0.288829,-0.1140043 -0.398973,8.137e-4 -0.07213,0.075624 -0.0919,0.1807216 -0.06918,0.2772977 l -0.524694,0.5485458 0.176123,-0.6976863 c 0.09125,-0.028392 0.168333,-0.099478 0.194323,-0.2025366 0.03963,-0.1571419 -0.0504,-0.3177542 -0.201043,-0.3590421 -0.150719,-0.041483 -0.304968,0.052539 -0.344626,0.2095452 -0.02599,0.1029653 0.0076,0.2043778 0.0738,0.2758892 L 11.545252,4.596006 11.333976,3.7985872 c 0.0654,-0.072263 0.09771,-0.1740864 0.0706,-0.2769159 -0.04165,-0.1564036 -0.196929,-0.2483469 -0.347037,-0.2052686 -0.150209,0.043252 -0.238258,0.2052687 -0.196936,0.3620712 0.02725,0.1025325 0.10518,0.1724234 0.196665,0.1995414 l 0.194637,0.7339256 c 0,0 -0.474463,0.9672882 -0.944464,1.9259217 C 10.244652,6.4722736 10.181864,6.4064302 10.125014,6.3474595 10.047801,6.2668522 9.9773754,6.1932025 9.9154351,6.1276984 9.8390702,5.656697 9.7134924,5.2595997 9.5466777,4.937934 9.6122666,4.8419688 9.6517218,4.7253003 9.6517218,4.5987043 c 0,-0.3242112 -0.2522247,-0.5868808 -0.5630975,-0.5868808 -0.030027,0 -0.058821,0.00442 -0.08759,0.00911 L 8.6818287,3.6882376 c 0.00167,-0.01999 0.00571,-0.039006 0.00571,-0.059262 0,-0.3962572 -0.3076061,-0.719883 -0.6872243,-0.719883 -0.3795927,0 -0.6871989,0.3236258 -0.6871989,0.719883 0,0.020255 0.00404,0.039272 0.00571,0.059262 L 6.9997061,4.0209338 c -0.028769,-0.00442 -0.057563,-0.00911 -0.087591,-0.00911 -0.3108728,0 -0.5630975,0.2626696 -0.5630975,0.5868808 0,0.126596 0.039465,0.243256 0.1050102,0.3392467 C 6.2875529,5.2596167 6.1617206,5.6566291 6.0856951,6.1277154 6.023076,6.1931346 5.9526506,6.2667843 5.8754372,6.3473916 5.8190969,6.4063623 5.7559687,6.4722906 5.6931798,6.5378795 5.2231965,5.5792461 4.7487162,4.6119579 4.7487162,4.6119579 L 4.9433618,3.8780068 C 5.0348299,3.8508548 5.112722,3.7810234 5.1400437,3.6785248 5.1813656,3.5216375 5.0932914,3.3596591 4.9431072,3.3163857 4.792923,3.2733668 4.6376478,3.3652592 4.5959865,3.5216375 c -0.027099,0.1028295 0.0052,0.2046832 0.070604,0.2769159 L 4.4551451,4.5959722 4.2679664,3.8542149 C 4.3341492,3.7827713 4.3678346,3.6812909 4.3417857,3.5783681 4.3021609,3.421311 4.1479039,3.3272974 3.9972105,3.368789 3.8465172,3.4101108 3.7564915,3.5707316 3.7961164,3.7278735 3.8221653,3.8308812 3.899209,3.9019853 3.9904225,3.93041 L 4.1665708,4.6280454 3.6419443,4.0794912 C 3.664684,3.9829321 3.644914,3.8778031 3.5727916,3.8022019 3.4625717,3.6874001 3.2839628,3.686891 3.1738277,3.8014383 3.0635229,3.9159856 3.062929,4.1023158 3.173064,4.2176267 c 0.072105,0.075359 0.1729325,0.096415 0.26558,0.072971 l 0.6035539,0.6310282 c 0,0 0.8809111,2.7425165 0.8914324,2.7719594 0.079823,0.2218568 0.3732545,0.7349438 1.1028782,0.2722067 0.050256,0.6521389 0.1594753,1.3424096 0.316753,1.9896436 -0.6776108,-0.373 -0.6401072,-0.351363 -0.6721805,-0.363412 -0.6573317,-0.234694 -1.1445394,0.270926 -1.1286725,0.8190564 5.082e-4,0.04741 0.012873,0.141954 0.013986,0.136082 0.2199647,1.004622 0.2063463,0.943191 0.2670988,1.221329 -0.089576,-0.04077 -0.9600759,-0.433252 -1.0859931,-0.49011 l 0.1658645,-0.62626 c 0.2838736,-0.08394 0.2673194,-0.484628 0,-0.561638 -0.1502097,-0.04308 -0.3053831,0.04892 -0.3470444,0.20532 -0.0271,0.102804 0.0052,0.204658 0.070604,0.276873 L 3.4253939,11.370265 3.2382151,10.628677 c 0.066056,-0.07155 0.099741,-0.172924 0.073726,-0.275931 -0.039561,-0.156939 -0.1939073,-0.251071 -0.344626,-0.209579 -0.1505746,0.0413 -0.2406087,0.201968 -0.2010432,0.35905 0.026011,0.10311 0.1031689,0.17418 0.1942976,0.202384 L 3.1328232,11.387719 2.616164,10.85655 C 2.639731,10.75959 2.6154866,10.652673 2.542922,10.576597 2.4326851,10.461761 2.2540932,10.461328 2.1438563,10.575915 c -0.1101436,0.114437 -0.110746,0.300759 -7.501e-4,0.416078 0.073315,0.07659 0.1769968,0.10188 0.2707049,0.07659 l 0.5781499,0.594246 -0.4013398,0.05236 c -0.059039,-0.07943 -0.1553855,-0.125408 -0.2579096,-0.11207 -0.1546642,0.02025 -0.2643242,0.167307 -0.2450633,0.328123 0.019285,0.16102 0.1603493,0.275482 0.3151832,0.255661 0.1025156,-0.01345 0.1849048,-0.08287 0.2233333,-0.174994 l 0.6273797,-0.0823 c 0.066177,0.0383 1.8706844,1.083532 1.8706844,1.083532 0.1955025,0.113224 0.4354833,0.1021 0.6205578,-0.02875 0.1850745,-0.130856 0.2839415,-0.359195 0.255152,-0.590368 -0.073508,-0.59019 -0.1430484,-1.145982 -0.1433623,-1.148613 0.037528,0.02583 1.0215072,0.731134 1.5205091,1.085824 0.1959692,0.221551 0.4055737,0.354222 0.6232984,0.354222 0.2177162,0 0.4273293,-0.132688 0.6232985,-0.354222 0.4989764,-0.354707 1.4830056,-1.060029 1.5205096,-1.085824 -3.14e-4,0.0026 -0.06986,0.558457 -0.143363,1.148613 -0.028798,0.231173 0.07009,0.459529 0.255152,0.590368 0.1851,0.130855 0.425055,0.141979 0.620558,0.02875 0,0 1.804586,-1.04518 1.870684,-1.083532 l 0.627405,0.0819 c 0.03842,0.09216 0.120809,0.161554 0.223333,0.174994 0.154834,0.01981 0.295897,-0.09464 0.315158,-0.255686 0.01931,-0.160841 -0.09035,-0.307869 -0.245012,-0.328123 z"
     style="color:#5c616c;fill:currentColor;stroke-width:0.8484984"
     class="ColorScheme-Text"
     inkscape:connector-curvature="0" /></svg>
